%
(CLEARINGTRASEIRO)
(REBAIXOTRASEIRO)
(SIMULAO DE MQUINA)
(  VENDOR SHERLINE)
(  MODEL 1100)
(  DESCRIPTION SHERLINE)
(T2  D=5. CR=0. - ZMIN=-1. - FLAT END MILL)
G90 G94 G17 G91.1
G21
(CAIXA 2D2)
G54
G0 Z20
G0 X-7.977 Y5.806
G43 Z15.
G0 Z5.
G1 Z1. F50.
G3 X-7.966 Y5.771 Z0.812 I2.265 J0.715 F33.33
X-7.931 Y5.674 Z0.652 I2.254 J0.75
X-7.871 Y5.53 Z0.543 I2.219 J0.848
X-7.787 Y5.364 Z0.5 I2.158 J0.992
X-3.639 Y7.679 Z0.239 I2.074 J1.157
X-7.787 Y5.364 Z-0.021 I-2.074 J-1.157
X-3.639 Y7.679 Z-0.282 I2.074 J1.157
X-8.088 Y6.521 Z-0.5 I-2.074 J-1.157
G1 Y5.247 F50.
G3 X-7.768 Y4.927 I0.319 J0.
G1 X-5.219
G3 X-4.9 Y5.247 I0. J0.319
G1 Y17.674
G3 X-5.219 Y17.993 I-0.319 J0.
G1 X-7.772
G3 X-8.088 Y17.678 I0. J-0.315
G1 Y6.521
G2 X-9.535 Y3.9 I-3.097 J0.
G3 X-8.705 Y1.022 I0.83 J-1.319
G1 X-0.995
Y21.898
X-11.993
Y1.022
X-8.705
G3 X-6.99 Y1.754 Z-0.562 I0. J2.375 F33.33
G1 X-3.998 Y4.878 Z-0.701
G3 X-7.428 Y8.164 Z-0.942 I-1.715 J1.643
X-8.088 Y6.521 Z-1. I1.715 J-1.643
G1 Y5.247 F50.
G3 X-7.768 Y4.927 I0.319 J0.
G1 X-5.219
G3 X-4.9 Y5.247 I0. J0.319
G1 Y17.674
G3 X-5.219 Y17.993 I-0.319 J0.
G1 X-7.772
G3 X-8.088 Y17.678 I0. J-0.315
G1 Y6.521
G2 X-9.535 Y3.9 I-3.097 J0.
G3 X-8.705 Y1.022 I0.83 J-1.319
G1 X-0.995
Y21.898
X-11.993
Y1.022
X-8.705
G3 X-8.518 Y1.059 Z-0.962 I0. J0.5
X-8.38 Y1.142 Z-0.854 I-0.187 J0.464
X-8.306 Y1.221 Z-0.691 I-0.325 J0.38
X-8.284 Y1.252 Z-0.5 I-0.399 J0.301
G0 Z15.
G53 X0. Y0.
M30
%
