%
(REBAIXOPRICIPALRODA)
(SIMULAO DE MQUINA)
(  VENDOR SHERLINE)
(  MODEL 1100)
(  DESCRIPTION SHERLINE - 4 EIXOS)
(T1  D=3. CR=0. - ZMIN=-8. - FLAT END MILL)
G90 G94 G17 G91.1
G21
(CAIXA 2D2)
G54
G0 Z20
A0.
G0 X-0.5 Y-18.687
G43 Z15.
G0 Z5.
G1 Z0.8 F60.
G19 G2 Y-18.976 Z0.5 J-0.3 K0. F20.
G1 Y-22.75 Z0.368
X0.5 Z0.333
Y-14.45 Z0.043
G17 G3 X-0.5 Z-0.011 I-0.5 J0.
G1 Y-22.75 Z-0.301
X0.5 Z-0.336
Y-14.45 Z-0.626
G3 X-0.5 Z-0.681 I-0.5 J0.
G1 Y-22.75 Z-0.971
X0.5 Z-1.006
Y-14.45 Z-1.295
G3 X-0.5 Z-1.35 I-0.5 J0.
G1 Y-22.75 Z-1.64
X0.5 Z-1.675
Y-14.45 Z-1.965
G3 X-0.5 Z-2.02 I-0.5 J0.
G1 Y-22.75 Z-2.31
X0.5 Z-2.345
Y-14.45 Z-2.634
G3 X-0.5 Z-2.689 I-0.5 J0.
G1 Y-22.75 Z-2.979
X0.5 Z-3.014
Y-14.45 Z-3.304
G3 X-0.5 Z-3.359 I-0.5 J0.
G1 Y-22.75 Z-3.649
X0.5 Z-3.683
Y-14.45 Z-3.973
G3 X-0.5 Z-4.028 I-0.5 J0.
G1 Y-22.75 Z-4.318
X0.5 Z-4.353
Y-14.45 Z-4.643
G3 X-0.5 Z-4.698 I-0.5 J0.
G1 Y-22.75 Z-4.987
X0.5 Z-5.022
Y-14.45 Z-5.312
G3 X-0.5 Z-5.367 I-0.5 J0.
G1 Y-22.75 Z-5.657
X0.5 Z-5.692
Y-14.45 Z-5.982
G3 X-0.5 Z-6.037 I-0.5 J0.
G1 Y-22.75 Z-6.326
X0.5 Z-6.361
Y-14.45 Z-6.651
G3 X-0.5 Z-6.706 I-0.5 J0.
G1 Y-22.75 Z-6.996
X0.5 Z-7.031
Y-14.45 Z-7.321
G3 X-0.5 Z-7.375 I-0.5 J0.
G1 Y-22.75 Z-7.665
X0.5 Z-7.7
Y-14.45 Z-7.99
G3 X0.421 Y-14.18 Z-8. I-0.5 J0.
X-0.5 Y-14.45 I-0.421 J-0.27 F60.
G1 Y-22.75
X0.5
Y-14.45
G3 X0.421 Y-14.18 I-0.5 J0.
X0.342 Y-14.098 Z-7.977 I-0.253 J-0.162
X0.255 Y-14.055 Z-7.912 I-0.174 J-0.244
X0.191 Y-14.043 Z-7.815 I-0.087 J-0.287
X0.169 Y-14.042 Z-7.7 I-0.023 J-0.299
G0 Z15.
G53 X0. Y0.
M30
%
