%
(REBAIXOINFERIOR)
(REBAIXOTRASEIRO)
(T1  D=3. CR=0. - ZMIN=-8. - FLAT END MILL)
G90 G94 G17 G91.1
G21
(CAIXA 2D5)
G54
G0 Z20.
G0 X-7.646 Y-0.352
G43 Z15. 
G0 Z5.
G1 Z0.8 F60.
G18 G2 X-7.357 Z0.5 I0.3 K0. F20.
G1 X-0.517 Z0.261
Y2.2 Z0.172
X-18.2 Z-0.445
Y0.639 Z-0.5
Y-0.352 F60.
X-0.517
Y2.2
X-18.2
Y0.639
G17 G2 X-18.35 Y0.414 I-0.244 J0.
G3 X-18.5 Y0.189 I0.094 J-0.225
G1 Y-0.652
X-0.217
Y2.5
X-18.5
Y0.189
G3 X-18.387 Y0.104 I0.089 J0.
G1 X-17.97 Y0.222
X-5.844 Y1.746
X-5.388 Y1.942
G3 X-5.443 Y2.2 I-0.055 J0.123
G1 X-18.2 Z-0.945 F20.
Y0.639 Z-1.
Y-0.352 F60.
X-0.517
Y2.2
X-18.2
Y0.639
G2 X-18.35 Y0.414 I-0.244 J0.
G3 X-18.5 Y0.189 I0.094 J-0.225
G1 Y-0.652
X-0.217
Y2.5
X-18.5
Y0.189
G3 X-18.387 Y0.104 I0.089 J0.
G1 X-17.97 Y0.222
X-5.844 Y1.746
X-5.388 Y1.942
G3 X-5.443 Y2.2 I-0.055 J0.123
G1 X-18.2 Z-1.445 F20.
Y0.639 Z-1.5
Y-0.352 F60.
X-0.517
Y2.2
X-18.2
Y0.639
G2 X-18.35 Y0.414 I-0.244 J0.
G3 X-18.5 Y0.189 I0.094 J-0.225
G1 Y-0.652
X-0.217
Y2.5
X-18.5
Y0.189
G3 X-18.387 Y0.104 I0.089 J0.
G1 X-17.97 Y0.222
X-5.844 Y1.746
X-5.388 Y1.942
G3 X-5.443 Y2.2 I-0.055 J0.123
G1 X-18.2 Z-1.945 F20.
Y0.639 Z-2.
Y-0.352 F60.
X-0.517
Y2.2
X-18.2
Y0.639
G2 X-18.35 Y0.414 I-0.244 J0.
G3 X-18.5 Y0.189 I0.094 J-0.225
G1 Y-0.652
X-0.217
Y2.5
X-18.5
Y0.189
G3 X-18.387 Y0.104 I0.089 J0.
G1 X-17.97 Y0.222
X-5.844 Y1.746
X-5.388 Y1.942
G3 X-5.443 Y2.2 I-0.055 J0.123
G1 X-18.2 Z-2.445 F20.
Y0.639 Z-2.5
Y-0.352 F60.
X-0.517
Y2.2
X-18.2
Y0.639
G2 X-18.35 Y0.414 I-0.244 J0.
G3 X-18.5 Y0.189 I0.094 J-0.225
G1 Y-0.652
X-0.217
Y2.5
X-18.5
Y0.189
G3 X-18.387 Y0.104 I0.089 J0.
G1 X-17.97 Y0.222
X-5.844 Y1.746
X-5.388 Y1.942
G3 X-5.443 Y2.2 I-0.055 J0.123
G1 X-18.2 Z-2.945 F20.
Y0.639 Z-3.
Y-0.352 F60.
X-0.517
Y2.2
X-18.2
Y0.639
G2 X-18.35 Y0.414 I-0.244 J0.
G3 X-18.5 Y0.189 I0.094 J-0.225
G1 Y-0.652
X-0.217
Y2.5
X-18.5
Y0.189
G3 X-18.387 Y0.104 I0.089 J0.
G1 X-17.97 Y0.222
X-5.844 Y1.746
X-5.388 Y1.942
G3 X-5.443 Y2.2 I-0.055 J0.123
G1 X-18.2 Z-3.445 F20.
Y0.639 Z-3.5
Y-0.352 F60.
X-0.517
Y2.2
X-18.2
Y0.639
G2 X-18.35 Y0.414 I-0.244 J0.
G3 X-18.5 Y0.189 I0.094 J-0.225
G1 Y-0.652
X-0.217
Y2.5
X-18.5
Y0.189
G3 X-18.387 Y0.104 I0.089 J0.
G1 X-17.97 Y0.222
X-5.844 Y1.746
X-5.388 Y1.942
G3 X-5.443 Y2.2 I-0.055 J0.123
G1 X-18.2 Z-3.945 F20.
Y0.639 Z-4.
Y-0.352 F60.
X-0.517
Y2.2
X-18.2
Y0.639
G2 X-18.35 Y0.414 I-0.244 J0.
G3 X-18.5 Y0.189 I0.094 J-0.225
G1 Y-0.652
X-0.217
Y2.5
X-18.5
Y0.189
G3 X-18.387 Y0.104 I0.089 J0.
G1 X-17.97 Y0.222
X-5.844 Y1.746
X-5.388 Y1.942
G3 X-5.443 Y2.2 I-0.055 J0.123
G1 X-18.2 Z-4.445 F20.
Y0.639 Z-4.5
Y-0.352 F60.
X-0.517
Y2.2
X-18.2
Y0.639
G2 X-18.35 Y0.414 I-0.244 J0.
G3 X-18.5 Y0.189 I0.094 J-0.225
G1 Y-0.652
X-0.217
Y2.5
X-18.5
Y0.189
G3 X-18.387 Y0.104 I0.089 J0.
G1 X-17.97 Y0.222
X-5.844 Y1.746
X-5.388 Y1.942
G3 X-5.443 Y2.2 I-0.055 J0.123
G1 X-18.2 Z-4.945 F20.
Y0.639 Z-5.
Y-0.352 F60.
X-0.517
Y2.2
X-18.2
Y0.639
G2 X-18.35 Y0.414 I-0.244 J0.
G3 X-18.5 Y0.189 I0.094 J-0.225
G1 Y-0.652
X-0.217
Y2.5
X-18.5
Y0.189
G3 X-18.387 Y0.104 I0.089 J0.
G1 X-17.97 Y0.222
X-5.844 Y1.746
X-5.388 Y1.942
G3 X-5.443 Y2.2 I-0.055 J0.123
G1 X-18.2 Z-5.445 F20.
Y0.639 Z-5.5
Y-0.352 F60.
X-0.517
Y2.2
X-18.2
Y0.639
G2 X-18.35 Y0.414 I-0.244 J0.
G3 X-18.5 Y0.189 I0.094 J-0.225
G1 Y-0.652
X-0.217
Y2.5
X-18.5
Y0.189
G3 X-18.387 Y0.104 I0.089 J0.
G1 X-17.97 Y0.222
X-5.844 Y1.746
X-5.388 Y1.942
G3 X-5.443 Y2.2 I-0.055 J0.123
G1 X-18.2 Z-5.945 F20.
Y0.639 Z-6.
Y-0.352 F60.
X-0.517
Y2.2
X-18.2
Y0.639
G2 X-18.35 Y0.414 I-0.244 J0.
G3 X-18.5 Y0.189 I0.094 J-0.225
G1 Y-0.652
X-0.217
Y2.5
X-18.5
Y0.189
G3 X-18.387 Y0.104 I0.089 J0.
G1 X-17.97 Y0.222
X-5.844 Y1.746
X-5.388 Y1.942
G3 X-5.443 Y2.2 I-0.055 J0.123
G1 X-18.2 Z-6.445 F20.
Y0.639 Z-6.5
Y-0.352 F60.
X-0.517
Y2.2
X-18.2
Y0.639
G2 X-18.35 Y0.414 I-0.244 J0.
G3 X-18.5 Y0.189 I0.094 J-0.225
G1 Y-0.652
X-0.217
Y2.5
X-18.5
Y0.189
G3 X-18.387 Y0.104 I0.089 J0.
G1 X-17.97 Y0.222
X-5.844 Y1.746
X-5.388 Y1.942
G3 X-5.443 Y2.2 I-0.055 J0.123
G1 X-18.2 Z-6.945 F20.
Y0.639 Z-7.
Y-0.352 F60.
X-0.517
Y2.2
X-18.2
Y0.639
G2 X-18.35 Y0.414 I-0.244 J0.
G3 X-18.5 Y0.189 I0.094 J-0.225
G1 Y-0.652
X-0.217
Y2.5
X-18.5
Y0.189
G3 X-18.387 Y0.104 I0.089 J0.
G1 X-17.97 Y0.222
X-5.844 Y1.746
X-5.388 Y1.942
G3 X-5.443 Y2.2 I-0.055 J0.123
G1 X-18.2 Z-7.445 F20.
Y0.639 Z-7.5
Y-0.352 F60.
X-0.517
Y2.2
X-18.2
Y0.639
G2 X-18.35 Y0.414 I-0.244 J0.
G3 X-18.5 Y0.189 I0.094 J-0.225
G1 Y-0.652
X-0.217
Y2.5
X-18.5
Y0.189
G3 X-18.387 Y0.104 I0.089 J0.
G1 X-17.97 Y0.222
X-5.844 Y1.746
X-5.388 Y1.942
G3 X-5.443 Y2.2 I-0.055 J0.123
G1 X-18.2 Z-7.945 F20.
Y0.639 Z-8.
Y-0.352 F60.
X-0.517
Y2.2
X-18.2
Y0.639
G2 X-18.35 Y0.414 I-0.244 J0.
G3 X-18.5 Y0.189 I0.094 J-0.225
G1 Y-0.652
X-0.217
Y2.5
X-18.5
Y0.189
G3 X-18.478 Y0.077 Z-7.977 I0.3 J0.
X-18.428 Y-0.006 Z-7.912 I0.278 J0.112
X-18.381 Y-0.05 Z-7.815 I0.228 J0.195
X-18.362 Y-0.064 Z-7.7 I0.181 J0.239
G0 Z15.
M30
%
