%
(TESTE)
(REBAIXOTRASEIRO)
(T2  D=5. CR=0. - ZMIN=-4.52 - FLAT END MILL)
G90 G94 G17 G91.1
G21
(CAIXA 2D3)
G54
G0 Z20.
G0 X-20.768 Y13.645
G43 Z15. 
G0 Z5.
G1 Z1. F50.
G3 X-20.796 Y13.623 Z0.812 I1.476 J-1.86 F33.33
X-20.875 Y13.555 Z0.652 I1.505 J-1.837
X-20.988 Y13.447 Z0.543 I1.584 J-1.77
X-21.113 Y13.309 Z0.5 I1.697 J-1.662
X-17.47 Y10.261 Z0.239 I1.821 J-1.524
X-21.113 Y13.309 Z-0.021 I-1.821 J1.524
X-17.47 Y10.261 Z-0.282 I1.821 J-1.524
X-21.113 Y13.309 Z-0.542 I-1.821 J1.524
X-21.667 Y11.785 Z-0.6 I1.821 J-1.524
G1 Y10.595 F50.
G3 X-21.347 Y10.275 I0.319 J0.
G1 X-11.024
G3 X-10.705 Y10.595 I0. J0.319
G1 Y12.976
G3 X-11.024 Y13.295 I-0.319 J0.
G1 X-21.351
G3 X-21.667 Y12.98 I0. J-0.315
G1 Y11.785
G2 X-22.945 Y9.438 I-2.793 J0.
G3 X-22.189 Y6.875 I0.755 J-1.17
G1 X-7.624
G3 X-7.305 Y7.195 I0. J0.319
G1 Y16.376
G3 X-7.624 Y16.695 I-0.319 J0.
G1 X-24.751
G3 X-25.067 Y16.38 I0. J-0.315
G1 Y7.195
G3 X-24.747 Y6.875 I0.319 J0.
G1 X-22.189
G2 X-19.639 Y5.175 I0. J-2.762
G3 X-17.089 Y3.475 I2.55 J1.063
G1 X-4.224
G3 X-3.905 Y3.795 I0. J0.319
G1 Y19.776
G3 X-4.224 Y20.095 I-0.319 J0.
G1 X-28.151
G3 X-28.467 Y19.78 I0. J-0.315
G1 Y3.795
G3 X-28.147 Y3.475 I0.319 J0.
G1 X-17.089
G2 X-14.536 Y1.773 I0. J-2.767
G3 X-11.982 Y0.07 I2.554 J1.064
G1 X-0.5
Y23.5
X-31.872
Y0.07
X-11.982
G3 X-10.112 Y3.909 Z-0.738 I0. J2.375 F33.33
G1 X-17.421 Y13.249 Z-1.047
G3 X-21.667 Y11.785 Z-1.2 I-1.87 J-1.464
G1 Y10.595 F50.
G3 X-21.347 Y10.275 I0.319 J0.
G1 X-11.024
G3 X-10.705 Y10.595 I0. J0.319
G1 Y12.976
G3 X-11.024 Y13.295 I-0.319 J0.
G1 X-21.351
G3 X-21.667 Y12.98 I0. J-0.315
G1 Y11.785
G2 X-22.945 Y9.438 I-2.793 J0.
G3 X-22.189 Y6.875 I0.755 J-1.17
G1 X-7.624
G3 X-7.305 Y7.195 I0. J0.319
G1 Y16.376
G3 X-7.624 Y16.695 I-0.319 J0.
G1 X-24.751
G3 X-25.067 Y16.38 I0. J-0.315
G1 Y7.195
G3 X-24.747 Y6.875 I0.319 J0.
G1 X-22.189
G2 X-19.639 Y5.175 I0. J-2.762
G3 X-17.089 Y3.475 I2.55 J1.063
G1 X-4.224
G3 X-3.905 Y3.795 I0. J0.319
G1 Y19.776
G3 X-4.224 Y20.095 I-0.319 J0.
G1 X-28.151
G3 X-28.467 Y19.78 I0. J-0.315
G1 Y3.795
G3 X-28.147 Y3.475 I0.319 J0.
G1 X-17.089
G2 X-14.536 Y1.773 I0. J-2.767
G3 X-11.982 Y0.07 I2.554 J1.064
G1 X-0.5
Y23.5
X-31.872
Y0.07
X-11.982
G3 X-10.112 Y3.909 Z-1.338 I0. J2.375 F33.33
G1 X-17.421 Y13.249 Z-1.647
G3 X-21.667 Y11.785 Z-1.8 I-1.87 J-1.464
G1 Y10.595 F50.
G3 X-21.347 Y10.275 I0.319 J0.
G1 X-11.024
G3 X-10.705 Y10.595 I0. J0.319
G1 Y12.976
G3 X-11.024 Y13.295 I-0.319 J0.
G1 X-21.351
G3 X-21.667 Y12.98 I0. J-0.315
G1 Y11.785
G2 X-22.945 Y9.438 I-2.793 J0.
G3 X-22.189 Y6.875 I0.755 J-1.17
G1 X-7.624
G3 X-7.305 Y7.195 I0. J0.319
G1 Y16.376
G3 X-7.624 Y16.695 I-0.319 J0.
G1 X-24.751
G3 X-25.067 Y16.38 I0. J-0.315
G1 Y7.195
G3 X-24.747 Y6.875 I0.319 J0.
G1 X-22.189
G2 X-19.639 Y5.175 I0. J-2.762
G3 X-17.089 Y3.475 I2.55 J1.063
G1 X-4.224
G3 X-3.905 Y3.795 I0. J0.319
G1 Y19.776
G3 X-4.224 Y20.095 I-0.319 J0.
G1 X-28.151
G3 X-28.467 Y19.78 I0. J-0.315
G1 Y3.795
G3 X-28.147 Y3.475 I0.319 J0.
G1 X-17.089
G2 X-14.536 Y1.773 I0. J-2.767
G3 X-11.982 Y0.07 I2.554 J1.064
G1 X-0.5
Y23.5
X-31.872
Y0.07
X-11.982
G3 X-10.112 Y3.909 Z-1.938 I0. J2.375 F33.33
G1 X-17.421 Y13.249 Z-2.247
G3 X-21.667 Y11.785 Z-2.4 I-1.87 J-1.464
G1 Y10.595 F50.
G3 X-21.347 Y10.275 I0.319 J0.
G1 X-11.024
G3 X-10.705 Y10.595 I0. J0.319
G1 Y12.976
G3 X-11.024 Y13.295 I-0.319 J0.
G1 X-21.351
G3 X-21.667 Y12.98 I0. J-0.315
G1 Y11.785
G2 X-22.945 Y9.438 I-2.793 J0.
G3 X-22.189 Y6.875 I0.755 J-1.17
G1 X-7.624
G3 X-7.305 Y7.195 I0. J0.319
G1 Y16.376
G3 X-7.624 Y16.695 I-0.319 J0.
G1 X-24.751
G3 X-25.067 Y16.38 I0. J-0.315
G1 Y7.195
G3 X-24.747 Y6.875 I0.319 J0.
G1 X-22.189
G2 X-19.639 Y5.175 I0. J-2.762
G3 X-17.089 Y3.475 I2.55 J1.063
G1 X-4.224
G3 X-3.905 Y3.795 I0. J0.319
G1 Y19.776
G3 X-4.224 Y20.095 I-0.319 J0.
G1 X-28.151
G3 X-28.467 Y19.78 I0. J-0.315
G1 Y3.795
G3 X-28.147 Y3.475 I0.319 J0.
G1 X-17.089
G2 X-14.536 Y1.773 I0. J-2.767
G3 X-11.982 Y0.07 I2.554 J1.064
G1 X-0.5
Y23.5
X-31.872
Y0.07
X-11.982
G3 X-10.112 Y3.909 Z-2.538 I0. J2.375 F33.33
G1 X-17.421 Y13.249 Z-2.847
G3 X-21.667 Y11.785 Z-3. I-1.87 J-1.464
G1 Y10.595 F50.
G3 X-21.347 Y10.275 I0.319 J0.
G1 X-11.024
G3 X-10.705 Y10.595 I0. J0.319
G1 Y12.976
G3 X-11.024 Y13.295 I-0.319 J0.
G1 X-21.351
G3 X-21.667 Y12.98 I0. J-0.315
G1 Y11.785
G2 X-22.945 Y9.438 I-2.793 J0.
G3 X-22.189 Y6.875 I0.755 J-1.17
G1 X-7.624
G3 X-7.305 Y7.195 I0. J0.319
G1 Y16.376
G3 X-7.624 Y16.695 I-0.319 J0.
G1 X-24.751
G3 X-25.067 Y16.38 I0. J-0.315
G1 Y7.195
G3 X-24.747 Y6.875 I0.319 J0.
G1 X-22.189
G2 X-19.639 Y5.175 I0. J-2.762
G3 X-17.089 Y3.475 I2.55 J1.063
G1 X-4.224
G3 X-3.905 Y3.795 I0. J0.319
G1 Y19.776
G3 X-4.224 Y20.095 I-0.319 J0.
G1 X-28.151
G3 X-28.467 Y19.78 I0. J-0.315
G1 Y3.795
G3 X-28.147 Y3.475 I0.319 J0.
G1 X-17.089
G2 X-14.536 Y1.773 I0. J-2.767
G3 X-11.982 Y0.07 I2.554 J1.064
G1 X-0.5
Y23.5
X-31.872
Y0.07
X-11.982
G3 X-10.112 Y3.909 Z-3.138 I0. J2.375 F33.33
G1 X-17.421 Y13.249 Z-3.447
G3 X-21.667 Y11.785 Z-3.6 I-1.87 J-1.464
G1 Y10.595 F50.
G3 X-21.347 Y10.275 I0.319 J0.
G1 X-11.024
G3 X-10.705 Y10.595 I0. J0.319
G1 Y12.976
G3 X-11.024 Y13.295 I-0.319 J0.
G1 X-21.351
G3 X-21.667 Y12.98 I0. J-0.315
G1 Y11.785
G2 X-22.945 Y9.438 I-2.793 J0.
G3 X-22.189 Y6.875 I0.755 J-1.17
G1 X-7.624
G3 X-7.305 Y7.195 I0. J0.319
G1 Y16.376
G3 X-7.624 Y16.695 I-0.319 J0.
G1 X-24.751
G3 X-25.067 Y16.38 I0. J-0.315
G1 Y7.195
G3 X-24.747 Y6.875 I0.319 J0.
G1 X-22.189
G2 X-19.639 Y5.175 I0. J-2.762
G3 X-17.089 Y3.475 I2.55 J1.063
G1 X-4.224
G3 X-3.905 Y3.795 I0. J0.319
G1 Y19.776
G3 X-4.224 Y20.095 I-0.319 J0.
G1 X-28.151
G3 X-28.467 Y19.78 I0. J-0.315
G1 Y3.795
G3 X-28.147 Y3.475 I0.319 J0.
G1 X-17.089
G2 X-14.536 Y1.773 I0. J-2.767
G3 X-11.982 Y0.07 I2.554 J1.064
G1 X-0.5
Y23.5
X-31.872
Y0.07
X-11.982
G3 X-10.112 Y3.909 Z-3.738 I0. J2.375 F33.33
G1 X-17.421 Y13.249 Z-4.047
G3 X-21.667 Y11.785 Z-4.2 I-1.87 J-1.464
G1 Y10.595 F50.
G3 X-21.347 Y10.275 I0.319 J0.
G1 X-11.024
G3 X-10.705 Y10.595 I0. J0.319
G1 Y12.976
G3 X-11.024 Y13.295 I-0.319 J0.
G1 X-21.351
G3 X-21.667 Y12.98 I0. J-0.315
G1 Y11.785
G2 X-22.945 Y9.438 I-2.793 J0.
G3 X-22.189 Y6.875 I0.755 J-1.17
G1 X-7.624
G3 X-7.305 Y7.195 I0. J0.319
G1 Y16.376
G3 X-7.624 Y16.695 I-0.319 J0.
G1 X-24.751
G3 X-25.067 Y16.38 I0. J-0.315
G1 Y7.195
G3 X-24.747 Y6.875 I0.319 J0.
G1 X-22.189
G2 X-19.639 Y5.175 I0. J-2.762
G3 X-17.089 Y3.475 I2.55 J1.063
G1 X-4.224
G3 X-3.905 Y3.795 I0. J0.319
G1 Y19.776
G3 X-4.224 Y20.095 I-0.319 J0.
G1 X-28.151
G3 X-28.467 Y19.78 I0. J-0.315
G1 Y3.795
G3 X-28.147 Y3.475 I0.319 J0.
G1 X-17.089
G2 X-14.536 Y1.773 I0. J-2.767
G3 X-11.982 Y0.07 I2.554 J1.064
G1 X-0.5
Y23.5
X-31.872
Y0.07
X-11.982
G3 X-10.112 Y3.909 Z-4.274 I0. J2.375 F33.33
G1 X-17.421 Y13.249 Z-4.438
G3 X-21.667 Y11.785 Z-4.52 I-1.87 J-1.464
G1 Y10.595 F50.
G3 X-21.347 Y10.275 I0.319 J0.
G1 X-11.024
G3 X-10.705 Y10.595 I0. J0.319
G1 Y12.976
G3 X-11.024 Y13.295 I-0.319 J0.
G1 X-21.351
G3 X-21.667 Y12.98 I0. J-0.315
G1 Y11.785
G2 X-22.945 Y9.438 I-2.793 J0.
G3 X-22.189 Y6.875 I0.755 J-1.17
G1 X-7.624
G3 X-7.305 Y7.195 I0. J0.319
G1 Y16.376
G3 X-7.624 Y16.695 I-0.319 J0.
G1 X-24.751
G3 X-25.067 Y16.38 I0. J-0.315
G1 Y7.195
G3 X-24.747 Y6.875 I0.319 J0.
G1 X-22.189
G2 X-19.639 Y5.175 I0. J-2.762
G3 X-17.089 Y3.475 I2.55 J1.063
G1 X-4.224
G3 X-3.905 Y3.795 I0. J0.319
G1 Y19.776
G3 X-4.224 Y20.095 I-0.319 J0.
G1 X-28.151
G3 X-28.467 Y19.78 I0. J-0.315
G1 Y3.795
G3 X-28.147 Y3.475 I0.319 J0.
G1 X-17.089
G2 X-14.536 Y1.773 I0. J-2.767
G3 X-11.982 Y0.07 I2.554 J1.064
G1 X-0.5
Y23.5
X-31.872
Y0.07
X-11.982
G3 X-11.795 Y0.106 Z-4.482 I0. J0.5
X-11.657 Y0.19 Z-4.374 I-0.187 J0.464
X-11.583 Y0.269 Z-4.211 I-0.325 J0.38
X-11.561 Y0.3 Z-4.02 I-0.399 J0.301
G0 Z15.
M30
%
