%
(REBAIXOLATERALGRANDE)
(REBAIXOTRASEIRO)
(T1  D=3. CR=0. - ZMIN=-4.6 - FLAT END MILL)
G90 G94 G17 G91.1
G21
(CAIXA 2D4)
G54
G0 Z20
G0 X-25.191 Y18.093
G43 Z15.
G0 Z5.
G1 Z0.8 F60.
G3 X-25.196 Y18.131 Z0.653 I-1.414 J-0.173 F20.
X-25.215 Y18.235 Z0.544 I-1.409 J-0.211
X-25.254 Y18.375 Z0.5 I-1.39 J-0.315
X-27.956 Y17.466 Z0.344 I-1.351 J-0.455
X-25.254 Y18.375 Z0.187 I1.351 J0.455
X-27.956 Y17.466 Z0.031 I-1.351 J-0.455
X-25.254 Y18.375 Z-0.125 I1.351 J0.455
X-27.956 Y17.466 Z-0.282 I-1.351 J-0.455
X-25.254 Y18.375 Z-0.438 I1.351 J0.455
X-26.605 Y19.345 Z-0.5 I-1.351 J-0.455
G1 X-27.079 F60.
G3 X-27.395 Y19.03 I0. J-0.315
G1 Y4.964
G3 X-27.075 Y4.644 I0.319 J0.
G1 X-26.135
G3 X-25.815 Y4.964 I0. J0.319
G1 Y19.026
G3 X-26.135 Y19.345 I-0.319 J0.
G1 X-26.605
G2 X-27.755 Y19.969 I0. J1.372
G3 X-29.008 Y19.596 I-0.572 J-0.372
G1 Y3.35
G3 X-28.689 Y3.031 I0.319 J0.
G1 X-24.521
G3 X-24.202 Y3.35 I0. J0.319
G1 Y20.64
G3 X-24.521 Y20.959 I-0.319 J0.
G1 X-28.693
G3 X-29.008 Y20.643 I0. J-0.315
G1 Y19.596
G2 X-30.209 Y17.795 I-1.951 J0.
G3 X-31.41 Y15.994 I0.751 J-1.801
G1 Y0.629
X-21.8
Y23.361
X-31.41
Y15.994
G2 X-31.56 Y15.769 I-0.244 J0.
G3 X-31.71 Y15.544 I0.094 J-0.225
G1 Y0.329
X-21.5
Y23.66
X-31.71
Y15.544
G3 X-31.44 Y15.357 I0.2 J0.
G1 X-27.623 Y16.788
G2 X-27.436 Y16.763 I0.07 J-0.187
G3 X-25.774 Y19.078 Z-0.656 I0.831 J1.157 F20.
X-27.436 Y16.763 Z-0.813 I-0.831 J-1.157
X-25.774 Y19.078 Z-0.969 I0.831 J1.157
X-26.605 Y19.345 Z-1. I-0.831 J-1.157
G1 X-27.079 F60.
G3 X-27.395 Y19.03 I0. J-0.315
G1 Y4.964
G3 X-27.075 Y4.644 I0.319 J0.
G1 X-26.135
G3 X-25.815 Y4.964 I0. J0.319
G1 Y19.026
G3 X-26.135 Y19.345 I-0.319 J0.
G1 X-26.605
G2 X-27.755 Y19.969 I0. J1.372
G3 X-29.008 Y19.596 I-0.572 J-0.372
G1 Y3.35
G3 X-28.689 Y3.031 I0.319 J0.
G1 X-24.521
G3 X-24.202 Y3.35 I0. J0.319
G1 Y20.64
G3 X-24.521 Y20.959 I-0.319 J0.
G1 X-28.693
G3 X-29.008 Y20.643 I0. J-0.315
G1 Y19.596
G2 X-30.209 Y17.795 I-1.951 J0.
G3 X-31.41 Y15.994 I0.751 J-1.801
G1 Y0.629
X-21.8
Y23.361
X-31.41
Y15.994
G2 X-31.56 Y15.769 I-0.244 J0.
G3 X-31.71 Y15.544 I0.094 J-0.225
G1 Y0.329
X-21.5
Y23.66
X-31.71
Y15.544
G3 X-31.44 Y15.357 I0.2 J0.
G1 X-27.623 Y16.788
G2 X-27.436 Y16.763 I0.07 J-0.187
G3 X-25.774 Y19.078 Z-1.156 I0.831 J1.157 F20.
X-27.436 Y16.763 Z-1.313 I-0.831 J-1.157
X-25.774 Y19.078 Z-1.469 I0.831 J1.157
X-26.605 Y19.345 Z-1.5 I-0.831 J-1.157
G1 X-27.079 F60.
G3 X-27.395 Y19.03 I0. J-0.315
G1 Y4.964
G3 X-27.075 Y4.644 I0.319 J0.
G1 X-26.135
G3 X-25.815 Y4.964 I0. J0.319
G1 Y19.026
G3 X-26.135 Y19.345 I-0.319 J0.
G1 X-26.605
G2 X-27.755 Y19.969 I0. J1.372
G3 X-29.008 Y19.596 I-0.572 J-0.372
G1 Y3.35
G3 X-28.689 Y3.031 I0.319 J0.
G1 X-24.521
G3 X-24.202 Y3.35 I0. J0.319
G1 Y20.64
G3 X-24.521 Y20.959 I-0.319 J0.
G1 X-28.693
G3 X-29.008 Y20.643 I0. J-0.315
G1 Y19.596
G2 X-30.209 Y17.795 I-1.951 J0.
G3 X-31.41 Y15.994 I0.751 J-1.801
G1 Y0.629
X-21.8
Y23.361
X-31.41
Y15.994
G2 X-31.56 Y15.769 I-0.244 J0.
G3 X-31.71 Y15.544 I0.094 J-0.225
G1 Y0.329
X-21.5
Y23.66
X-31.71
Y15.544
G3 X-31.44 Y15.357 I0.2 J0.
G1 X-27.623 Y16.788
G2 X-27.436 Y16.763 I0.07 J-0.187
G3 X-25.774 Y19.078 Z-1.656 I0.831 J1.157 F20.
X-27.436 Y16.763 Z-1.813 I-0.831 J-1.157
X-25.774 Y19.078 Z-1.969 I0.831 J1.157
X-26.605 Y19.345 Z-2. I-0.831 J-1.157
G1 X-27.079 F60.
G3 X-27.395 Y19.03 I0. J-0.315
G1 Y4.964
G3 X-27.075 Y4.644 I0.319 J0.
G1 X-26.135
G3 X-25.815 Y4.964 I0. J0.319
G1 Y19.026
G3 X-26.135 Y19.345 I-0.319 J0.
G1 X-26.605
G2 X-27.755 Y19.969 I0. J1.372
G3 X-29.008 Y19.596 I-0.572 J-0.372
G1 Y3.35
G3 X-28.689 Y3.031 I0.319 J0.
G1 X-24.521
G3 X-24.202 Y3.35 I0. J0.319
G1 Y20.64
G3 X-24.521 Y20.959 I-0.319 J0.
G1 X-28.693
G3 X-29.008 Y20.643 I0. J-0.315
G1 Y19.596
G2 X-30.209 Y17.795 I-1.951 J0.
G3 X-31.41 Y15.994 I0.751 J-1.801
G1 Y0.629
X-21.8
Y23.361
X-31.41
Y15.994
G2 X-31.56 Y15.769 I-0.244 J0.
G3 X-31.71 Y15.544 I0.094 J-0.225
G1 Y0.329
X-21.5
Y23.66
X-31.71
Y15.544
G3 X-31.44 Y15.357 I0.2 J0.
G1 X-27.623 Y16.788
G2 X-27.436 Y16.763 I0.07 J-0.187
G3 X-25.774 Y19.078 Z-2.156 I0.831 J1.157 F20.
X-27.436 Y16.763 Z-2.313 I-0.831 J-1.157
X-25.774 Y19.078 Z-2.469 I0.831 J1.157
X-26.605 Y19.345 Z-2.5 I-0.831 J-1.157
G1 X-27.079 F60.
G3 X-27.395 Y19.03 I0. J-0.315
G1 Y4.964
G3 X-27.075 Y4.644 I0.319 J0.
G1 X-26.135
G3 X-25.815 Y4.964 I0. J0.319
G1 Y19.026
G3 X-26.135 Y19.345 I-0.319 J0.
G1 X-26.605
G2 X-27.755 Y19.969 I0. J1.372
G3 X-29.008 Y19.596 I-0.572 J-0.372
G1 Y3.35
G3 X-28.689 Y3.031 I0.319 J0.
G1 X-24.521
G3 X-24.202 Y3.35 I0. J0.319
G1 Y20.64
G3 X-24.521 Y20.959 I-0.319 J0.
G1 X-28.693
G3 X-29.008 Y20.643 I0. J-0.315
G1 Y19.596
G2 X-30.209 Y17.795 I-1.951 J0.
G3 X-31.41 Y15.994 I0.751 J-1.801
G1 Y0.629
X-21.8
Y23.361
X-31.41
Y15.994
G2 X-31.56 Y15.769 I-0.244 J0.
G3 X-31.71 Y15.544 I0.094 J-0.225
G1 Y0.329
X-21.5
Y23.66
X-31.71
Y15.544
G3 X-31.44 Y15.357 I0.2 J0.
G1 X-27.623 Y16.788
G2 X-27.436 Y16.763 I0.07 J-0.187
G3 X-25.774 Y19.078 Z-2.656 I0.831 J1.157 F20.
X-27.436 Y16.763 Z-2.813 I-0.831 J-1.157
X-25.774 Y19.078 Z-2.969 I0.831 J1.157
X-26.605 Y19.345 Z-3. I-0.831 J-1.157
G1 X-27.079 F60.
G3 X-27.395 Y19.03 I0. J-0.315
G1 Y4.964
G3 X-27.075 Y4.644 I0.319 J0.
G1 X-26.135
G3 X-25.815 Y4.964 I0. J0.319
G1 Y19.026
G3 X-26.135 Y19.345 I-0.319 J0.
G1 X-26.605
G2 X-27.755 Y19.969 I0. J1.372
G3 X-29.008 Y19.596 I-0.572 J-0.372
G1 Y3.35
G3 X-28.689 Y3.031 I0.319 J0.
G1 X-24.521
G3 X-24.202 Y3.35 I0. J0.319
G1 Y20.64
G3 X-24.521 Y20.959 I-0.319 J0.
G1 X-28.693
G3 X-29.008 Y20.643 I0. J-0.315
G1 Y19.596
G2 X-30.209 Y17.795 I-1.951 J0.
G3 X-31.41 Y15.994 I0.751 J-1.801
G1 Y0.629
X-21.8
Y23.361
X-31.41
Y15.994
G2 X-31.56 Y15.769 I-0.244 J0.
G3 X-31.71 Y15.544 I0.094 J-0.225
G1 Y0.329
X-21.5
Y23.66
X-31.71
Y15.544
G3 X-31.44 Y15.357 I0.2 J0.
G1 X-27.623 Y16.788
G2 X-27.436 Y16.763 I0.07 J-0.187
G3 X-25.774 Y19.078 Z-3.156 I0.831 J1.157 F20.
X-27.436 Y16.763 Z-3.313 I-0.831 J-1.157
X-25.774 Y19.078 Z-3.469 I0.831 J1.157
X-26.605 Y19.345 Z-3.5 I-0.831 J-1.157
G1 X-27.079 F60.
G3 X-27.395 Y19.03 I0. J-0.315
G1 Y4.964
G3 X-27.075 Y4.644 I0.319 J0.
G1 X-26.135
G3 X-25.815 Y4.964 I0. J0.319
G1 Y19.026
G3 X-26.135 Y19.345 I-0.319 J0.
G1 X-26.605
G2 X-27.755 Y19.969 I0. J1.372
G3 X-29.008 Y19.596 I-0.572 J-0.372
G1 Y3.35
G3 X-28.689 Y3.031 I0.319 J0.
G1 X-24.521
G3 X-24.202 Y3.35 I0. J0.319
G1 Y20.64
G3 X-24.521 Y20.959 I-0.319 J0.
G1 X-28.693
G3 X-29.008 Y20.643 I0. J-0.315
G1 Y19.596
G2 X-30.209 Y17.795 I-1.951 J0.
G3 X-31.41 Y15.994 I0.751 J-1.801
G1 Y0.629
X-21.8
Y23.361
X-31.41
Y15.994
G2 X-31.56 Y15.769 I-0.244 J0.
G3 X-31.71 Y15.544 I0.094 J-0.225
G1 Y0.329
X-21.5
Y23.66
X-31.71
Y15.544
G3 X-31.44 Y15.357 I0.2 J0.
G1 X-27.623 Y16.788
G2 X-27.436 Y16.763 I0.07 J-0.187
G3 X-25.774 Y19.078 Z-3.656 I0.831 J1.157 F20.
X-27.436 Y16.763 Z-3.813 I-0.831 J-1.157
X-25.774 Y19.078 Z-3.969 I0.831 J1.157
X-26.605 Y19.345 Z-4. I-0.831 J-1.157
G1 X-27.079 F60.
G3 X-27.395 Y19.03 I0. J-0.315
G1 Y4.964
G3 X-27.075 Y4.644 I0.319 J0.
G1 X-26.135
G3 X-25.815 Y4.964 I0. J0.319
G1 Y19.026
G3 X-26.135 Y19.345 I-0.319 J0.
G1 X-26.605
G2 X-27.755 Y19.969 I0. J1.372
G3 X-29.008 Y19.596 I-0.572 J-0.372
G1 Y3.35
G3 X-28.689 Y3.031 I0.319 J0.
G1 X-24.521
G3 X-24.202 Y3.35 I0. J0.319
G1 Y20.64
G3 X-24.521 Y20.959 I-0.319 J0.
G1 X-28.693
G3 X-29.008 Y20.643 I0. J-0.315
G1 Y19.596
G2 X-30.209 Y17.795 I-1.951 J0.
G3 X-31.41 Y15.994 I0.751 J-1.801
G1 Y0.629
X-21.8
Y23.361
X-31.41
Y15.994
G2 X-31.56 Y15.769 I-0.244 J0.
G3 X-31.71 Y15.544 I0.094 J-0.225
G1 Y0.329
X-21.5
Y23.66
X-31.71
Y15.544
G3 X-29.512 Y14.347 Z-4.083 I1.425 J0. F20.
G1 X-25.832 Y16.723 Z-4.201
G3 X-26.605 Y19.345 Z-4.3 I-0.773 J1.197
G1 X-27.079 F60.
G3 X-27.395 Y19.03 I0. J-0.315
G1 Y4.964
G3 X-27.075 Y4.644 I0.319 J0.
G1 X-26.135
G3 X-25.815 Y4.964 I0. J0.319
G1 Y19.026
G3 X-26.135 Y19.345 I-0.319 J0.
G1 X-26.605
G2 X-27.755 Y19.969 I0. J1.372
G3 X-29.008 Y19.596 I-0.572 J-0.372
G1 Y3.35
G3 X-28.689 Y3.031 I0.319 J0.
G1 X-24.521
G3 X-24.202 Y3.35 I0. J0.319
G1 Y20.64
G3 X-24.521 Y20.959 I-0.319 J0.
G1 X-28.693
G3 X-29.008 Y20.643 I0. J-0.315
G1 Y19.596
G2 X-30.209 Y17.795 I-1.951 J0.
G3 X-31.41 Y15.994 I0.751 J-1.801
G1 Y0.629
X-21.8
Y23.361
X-31.41
Y15.994
G2 X-31.56 Y15.769 I-0.244 J0.
G3 X-31.71 Y15.544 I0.094 J-0.225
G1 Y0.329
X-21.5
Y23.66
X-31.71
Y15.544
G3 X-29.512 Y14.347 Z-4.383 I1.425 J0. F20.
G1 X-25.832 Y16.723 Z-4.501
G3 X-26.605 Y19.345 Z-4.6 I-0.773 J1.197
G1 X-27.079 F60.
G3 X-27.395 Y19.03 I0. J-0.315
G1 Y4.964
G3 X-27.075 Y4.644 I0.319 J0.
G1 X-26.135
G3 X-25.815 Y4.964 I0. J0.319
G1 Y19.026
G3 X-26.135 Y19.345 I-0.319 J0.
G1 X-26.605
G2 X-27.755 Y19.969 I0. J1.372
G3 X-29.008 Y19.596 I-0.572 J-0.372
G1 Y3.35
G3 X-28.689 Y3.031 I0.319 J0.
G1 X-24.521
G3 X-24.202 Y3.35 I0. J0.319
G1 Y20.64
G3 X-24.521 Y20.959 I-0.319 J0.
G1 X-28.693
G3 X-29.008 Y20.643 I0. J-0.315
G1 Y19.596
G2 X-30.209 Y17.795 I-1.951 J0.
G3 X-31.41 Y15.994 I0.751 J-1.801
G1 Y0.629
X-21.8
Y23.361
X-31.41
Y15.994
G2 X-31.56 Y15.769 I-0.244 J0.
G3 X-31.71 Y15.544 I0.094 J-0.225
G1 Y0.329
X-21.5
Y23.66
X-31.71
Y15.544
G3 X-31.688 Y15.432 Z-4.577 I0.3 J0.
X-31.638 Y15.349 Z-4.512 I0.278 J0.112
X-31.591 Y15.304 Z-4.415 I0.228 J0.195
X-31.572 Y15.291 Z-4.3 I0.181 J0.239
G0 Z15.
M30
%
